assets/Butterfly/Flat/butterfly_flat.svg

<svg width="32" height="32" viewBox="0 0 32 32" fill="none" xmlns="http://www.w3.org/2000/svg">
<path d="M27.5 2C26.88 2 26.31 2.23 25.87 2.6L16 11L6.13 2.6C5.69 2.23 5.12 2 4.5 2C3.12 2 2 3.12 2 4.5V14.25C2 16.32 3.68 18 5.75 18H8C4.69 18 2 20.69 2 24C2 27.31 4.69 30 8 30C10.36 30 12.4 28.64 13.38 26.66C13.49 26.43 13.59 26.2 13.67 25.96L16 20.3904L18.33 25.96C18.41 26.2 18.51 26.43 18.62 26.66C19.6 28.64 21.64 30 24 30C27.31 30 30 27.31 30 24C30 20.69 27.31 18 24 18H26.25C28.32 18 30 16.32 30 14.25V4.5C30 3.12 28.88 2 27.5 2Z" fill="#533566"/>
<path d="M10.21 13.9599L5.45001 11.2099C4.91001 10.8899 4.23001 11.2899 4.23001 11.9199V13.9199C4.23001 15.6199 5.61001 16.9999 7.31001 16.9999C7.93001 16.9999 8.53001 16.7499 8.97001 16.3099L10.34 14.9399C10.63 14.6499 10.57 14.1699 10.21 13.9599Z" fill="#FF822D"/>
<path d="M22.02 13.9599L26.78 11.2099C27.32 10.8899 28 11.2899 28 11.9199V13.9199C28 15.6199 26.62 16.9999 24.92 16.9999C24.3 16.9999 23.7 16.7499 23.26 16.3099L21.89 14.9399C21.6 14.6499 21.66 14.1699 22.02 13.9599Z" fill="#FF822D"/>
<path d="M17 16.8499L19.77 15.2499C20.15 15.0399 20.63 15.0999 20.94 15.4099L21.74 16.2099C22.03 16.4999 21.82 16.9999 21.41 16.9999H17V16.8499Z" fill="#FF822D"/>
<path d="M12.46 15.2499L15.23 16.8499V16.9999H10.82C10.41 16.9999 10.2 16.4999 10.49 16.2099L11.29 15.4099C11.6 15.0999 12.08 15.0399 12.46 15.2499Z" fill="#FF822D"/>
<path d="M4.23001 5.98009V8.20009C4.23001 8.91009 4.61001 9.57009 5.22001 9.92009L15.23 15.7001V13.0001L5.76001 5.25009C5.15001 4.75009 4.23001 5.19009 4.23001 5.98009Z" fill="#FF6723"/>
<path d="M28 5.98009V8.20009C28 8.91009 27.62 9.57009 27.01 9.92009L17 15.7001V13.0001L26.47 5.25009C27.08 4.75009 28 5.19009 28 5.98009Z" fill="#FF6723"/>
<path d="M12.96 19.5H9.64001C9.09001 19.5 8.82001 20.16 9.21001 20.54L12.16 23.49C12.47 23.8 12.99 23.69 13.16 23.29L14.06 21.14C14.39 20.37 13.81 19.5 12.96 19.5Z" fill="#FF6723"/>
<path d="M6.02 19.9599C4.53 20.6899 3.5 22.2299 3.5 23.9999C3.5 26.4699 5.45 28.4599 7.91 28.4999C9.67 28.5299 11.25 27.5699 12.03 25.9899L12.04 25.9699C12.04 25.9649 12.0425 25.9624 12.045 25.9599C12.0475 25.9574 12.05 25.9549 12.05 25.9499C12.27 25.4799 12.17 24.9099 11.8 24.5399L7.45 20.1999C7.07 19.8199 6.5 19.7199 6.02 19.9599ZM6.64 27.01C5.73425 27.01 5 26.2757 5 25.37C5 24.4642 5.73425 23.73 6.64 23.73C7.54575 23.73 8.28 24.4642 8.28 25.37C8.28 26.2757 7.54575 27.01 6.64 27.01Z" fill="#FF6723"/>
<path d="M19.08 19.5H22.4C22.95 19.5 23.22 20.16 22.83 20.54L19.88 23.49C19.57 23.8 19.05 23.69 18.88 23.29L17.98 21.14C17.65 20.37 18.23 19.5 19.08 19.5Z" fill="#FF6723"/>
<path d="M26.02 19.9599C27.51 20.6899 28.54 22.2299 28.54 23.9999C28.54 26.4699 26.59 28.4599 24.13 28.4999C22.37 28.5299 20.79 27.5699 20.01 25.9899L20 25.9799C20 25.9749 19.9975 25.9724 19.995 25.9699C19.9925 25.9674 19.99 25.9649 19.99 25.9599C19.77 25.4899 19.87 24.9199 20.24 24.5499L24.59 20.1999C24.97 19.8199 25.54 19.7199 26.02 19.9599ZM25.4 26.8801C26.3058 26.8801 27.04 26.1458 27.04 25.2401C27.04 24.3344 26.3058 23.6001 25.4 23.6001C24.4943 23.6001 23.76 24.3344 23.76 25.2401C23.76 26.1458 24.4943 26.8801 25.4 26.8801Z" fill="#FF6723"/>
<path d="M13.305 2.19344C13.1357 1.9753 12.8216 1.93572 12.6034 2.10504C12.3853 2.27436 12.3457 2.58846 12.515 2.8066C14.0792 4.82178 15.01 7.35463 15.01 10.11C15.01 10.3862 15.2339 10.61 15.51 10.61C15.7519 10.61 15.9537 10.4383 16 10.21C16.0463 10.4383 16.2481 10.61 16.49 10.61C16.7661 10.61 16.99 10.3862 16.99 10.11C16.99 7.35463 17.9208 4.82178 19.485 2.8066C19.6543 2.58846 19.6147 2.27436 19.3966 2.10504C19.1784 1.93572 18.8643 1.9753 18.695 2.19344C17.097 4.25228 16.1087 6.81046 16 9.59613C15.8913 6.81046 14.903 4.25228 13.305 2.19344Z" fill="#212121"/>
<path d="M16.9168 10.778C17.5602 10.4455 18 9.77414 18 9C18 7.89543 17.1046 7 16 7C14.8954 7 14 7.89543 14 9C14 9.77177 14.4371 10.4414 15.0773 10.7749C14.7211 11.0393 14.49 11.463 14.49 11.94V22.55C14.49 23.35 15.14 24 15.94 24H16.05C16.85 24 17.5 23.35 17.5 22.55V11.94C17.5 11.4648 17.2707 11.0425 16.9168 10.778Z" fill="#321B41"/>
</svg>

<svg xmlns="http://www.w3.org/2000/svg" width="32" height="32" fill="none"><path fill="#533566" d="M27.5 2c-.62 0-1.19.23-1.63.6L16 11 6.13 2.6C5.69 2.23 5.12 2 4.5 2A2.5 2.5 0 0 0 2 4.5v9.75C2 16.32 3.68 18 5.75 18H8c-3.31 0-6 2.69-6 6s2.69 6 6 6a5.997 5.997 0 0 0 5.67-4.04L16 20.39l2.33 5.57A5.997 5.997 0 0 0 24 30c3.31 0 6-2.69 6-6s-2.69-6-6-6h2.25c2.07 0 3.75-1.68 3.75-3.75V4.5A2.5 2.5 0 0 0 27.5 2Z"/><path fill="#FF822D" d="m10.21 13.96-4.76-2.75c-.54-.32-1.22.08-1.22.71v2c0 1.7 1.38 3.08 3.08 3.08.62 0 1.22-.25 1.66-.69l1.37-1.37a.62.62 0 0 0-.13-.98ZM22.02 13.96l4.76-2.75c.54-.32 1.22.08 1.22.71v2c0 1.7-1.38 3.08-3.08 3.08-.62 0-1.22-.25-1.66-.69l-1.37-1.37a.62.62 0 0 1 .13-.98ZM17 16.85l2.77-1.6c.38-.21.86-.15 1.17.16l.8.8c.29.29.08.79-.33.79H17v-.15ZM12.46 15.25l2.77 1.6V17h-4.41c-.41 0-.62-.5-.33-.79l.8-.8c.31-.31.79-.37 1.17-.16Z"/><path fill="#FF6723" d="M4.23 5.98V8.2c0 .71.38 1.37.99 1.72l10.01 5.78V13L5.76 5.25c-.61-.5-1.53-.06-1.53.73ZM28 5.98V8.2c0 .71-.38 1.37-.99 1.72L17 15.7V13l9.47-7.75c.61-.5 1.53-.06 1.53.73ZM12.96 19.5H9.64c-.55 0-.82.66-.43 1.04l2.95 2.95c.31.31.83.2 1-.2l.9-2.15c.33-.77-.25-1.64-1.1-1.64ZM6.02 19.96A4.504 4.504 0 0 0 3.5 24c0 2.47 1.95 4.46 4.41 4.5a4.47 4.47 0 0 0 4.12-2.51l.01-.02c0-.005.003-.008.005-.01.002-.003.005-.005.005-.01.22-.47.12-1.04-.25-1.41L7.45 20.2c-.38-.38-.95-.48-1.43-.24Zm.62 7.05a1.64 1.64 0 1 1 0-3.28 1.64 1.64 0 0 1 0 3.28ZM19.08 19.5h3.32c.55 0 .82.66.43 1.04l-2.95 2.95c-.31.31-.83.2-1-.2l-.9-2.15c-.33-.77.25-1.64 1.1-1.64ZM26.02 19.96c1.49.73 2.52 2.27 2.52 4.04 0 2.47-1.95 4.46-4.41 4.5a4.47 4.47 0 0 1-4.12-2.51l-.01-.01c0-.005-.003-.008-.005-.01-.003-.003-.005-.005-.005-.01-.22-.47-.12-1.04.25-1.41l4.35-4.35c.38-.38.95-.48 1.43-.24Zm-.62 6.92a1.64 1.64 0 1 0 0-3.28 1.64 1.64 0 0 0 0 3.28Z"/><path fill="#212121" d="M13.305 2.193a.5.5 0 0 0-.79.614 11.865 11.865 0 0 1 2.495 7.303.5.5 0 0 0 .99.1.5.5 0 0 0 .99-.1c0-2.755.93-5.288 2.495-7.303a.5.5 0 0 0-.79-.614A12.858 12.858 0 0 0 16 9.596a12.858 12.858 0 0 0-2.695-7.403Z"/><path fill="#321B41" d="M16.917 10.778a2 2 0 1 0-1.84-.003 1.449 1.449 0 0 0-.587 1.165v10.61c0 .8.65 1.45 1.45 1.45h.11c.8 0 1.45-.65 1.45-1.45V11.94c0-.475-.23-.897-.583-1.162Z"/></svg>
